assets/vscode-icon.svg

<svg fill="none" height="41" viewBox="0 0 41 41" width="41" xmlns="http://www.w3.org/2000/svg" xmlns:xlink="http://www.w3.org/1999/xlink"><filter id="a" color-interpolation-filters="sRGB" filterUnits="userSpaceOnUse" height="32.5" width="32.5" x="3.25" y="6.33333"><feFlood flood-opacity="0" result="BackgroundImageFix"/><feColorMatrix in="SourceAlpha" result="hardAlpha" type="matrix" values="0 0 0 0 0 0 0 0 0 0 0 0 0 0 0 0 0 0 127 0"/><feOffset dy="2.08333"/><feGaussianBlur stdDeviation="3.125"/><feColorMatrix type="matrix" values="0 0 0 0 0 0 0 0 0 0 0 0 0 0 0 0 0 0 0.15 0"/><feBlend in2="BackgroundImageFix" mode="normal" result="effect1_dropShadow_1993_71"/><feBlend in="SourceGraphic" in2="effect1_dropShadow_1993_71" mode="normal" result="shape"/></filter><filter id="b" color-interpolation-filters="sRGB" filterUnits="userSpaceOnUse" height="31.861" width="36.6784" x="1.15494" y="6.97232"><feFlood flood-opacity="0" result="BackgroundImageFix"/><feColorMatrix in="SourceAlpha" result="hardAlpha" type="matrix" values="0 0 0 0 0 0 0 0 0 0 0 0 0 0 0 0 0 0 127 0"/><feOffset/><feGaussianBlur stdDeviation="4.16667"/><feColorMatrix type="matrix" values="0 0 0 0 0 0 0 0 0 0 0 0 0 0 0 0 0 0 0.25 0"/><feBlend in2="BackgroundImageFix" mode="overlay" result="effect1_dropShadow_1993_71"/><feBlend in="SourceGraphic" in2="effect1_dropShadow_1993_71" mode="normal" result="shape"/></filter><filter id="c" color-interpolation-filters="sRGB" filterUnits="userSpaceOnUse" height="36.6667" width="22.9167" x="14.9167" y="2.16666"><feFlood flood-opacity="0" result="BackgroundImageFix"/><feColorMatrix in="SourceAlpha" result="hardAlpha" type="matrix" values="0 0 0 0 0 0 0 0 0 0 0 0 0 0 0 0 0 0 127 0"/><feOffset/><feGaussianBlur stdDeviation="4.16667"/><feColorMatrix type="matrix" values="0 0 0 0 0 0 0 0 0 0 0 0 0 0 0 0 0 0 0.25 0"/><feBlend in2="BackgroundImageFix" mode="overlay" result="effect1_dropShadow_1993_71"/><feBlend in="SourceGraphic" in2="effect1_dropShadow_1993_71" mode="normal" result="shape"/></filter><linearGradient id="d" gradientUnits="userSpaceOnUse" x1="19.4883" x2="19.4883" y1="10.5" y2="30.5002"><stop offset="0" stop-color="#fff"/><stop offset="1" stop-color="#fff" stop-opacity="0"/></linearGradient><clipPath id="e"><path d="m9.5 10.5h20v20h-20z"/></clipPath><mask id="f" height="21" maskUnits="userSpaceOnUse" width="21" x="9" y="10"><path d="m29.5 10.5h-20v20h20z" fill="#fff"/></mask><mask id="g" height="21" maskUnits="userSpaceOnUse" width="21" x="9" y="10"><path clip-rule="evenodd" d="m23.6824 30.4145c.315.1233.6742.1155.9921-.0383l4.1176-1.9916c.4327-.2092.7079-.6493.7079-1.1323v-13.5045c0-.4829-.2752-.923-.7079-1.1323l-4.1176-1.9917c-.4173-.2018-.9056-.1524-1.2718.1153-.0523.0382-.1021.0809-.1489.1279l-7.8828 7.2289-3.4336-2.6199c-.3196-.2439-.7667-.2239-1.0635.0476l-1.1013 1.0069c-.36312.332-.36352.9062-.00089 1.2388l2.97769 2.7307-2.97769 2.7307c-.36263.3326-.36223.9068.00089 1.2389l1.1013 1.0069c.2968.2714.7439.2915 1.0635.0475l3.4336-2.6198 7.8828 7.2288c.1247.1255.2711.2199.4286.2815zm.8206-14.4782-5.9812 4.5637 5.9812 4.5638z" fill="#fff" fill-rule="evenodd"/></mask><rect fill="#131117" height="40" rx="20" width="40" x=".5" y=".5"/><g clip-path="url(#e)"><g mask="url(#f)"><g filter="url(#a)"><g mask="url(#g)"><path d="m28.7928 12.6187-4.121-1.9944c-.477-.2309-1.047-.1335-1.4214.2428l-13.49025 12.3637c-.36285.3326-.36243.9068.0009 1.2388l1.10195 1.0069c.297.2715.7444.2914 1.0642.0476l16.2454-12.388c.545-.4156 1.3279-.0249 1.3279.6628v-.0481c0-.4827-.2752-.9227-.7077-1.1321z" fill="#d9d9d9"/><g filter="url(#b)"><path d="m28.7928 28.3814-4.121 1.9945c-.477.2309-1.047.1335-1.4214-.2429l-13.49025-12.3638c-.36285-.3325-.36243-.9067.0009-1.2388l1.10195-1.0069c.297-.2714.7444-.2914 1.0642-.0475l16.2454 12.388c.545.4157 1.3279.0249 1.3279-.6628v.0482c0 .4826-.2752.9226-.7077 1.132z" fill="#e6e6e6"/></g><g filter="url(#c)"><path d="m24.6716 30.3762c-.4772.2308-1.0472.1332-1.4216-.2432.4613.4636 1.25.1353 1.25-.5204v-18.2252c0-.6557-.7887-.9841-1.25-.5204.3744-.3763.9444-.4738 1.4216-.2432l4.1201 1.9917c.4329.2093.7083.6494.7083 1.1323v13.5045c0 .483-.2754.9229-.7083 1.1323z" fill="#fff"/></g><path clip-rule="evenodd" d="m23.6706 30.4145c.315.1233.6742.1155.9922-.0383l4.1177-1.9916c.4327-.2092.7077-.6493.7077-1.1323v-13.5045c0-.4828-.275-.923-.7077-1.1323l-4.1177-1.9917c-.4173-.2018-.9056-.1524-1.2718.1152-.0523.0383-.1022.081-.1489.128l-7.8828 7.2289-3.4336-2.6199c-.3196-.2439-.7667-.2239-1.0636.0476l-1.10122 1.0069c-.36311.332-.36352.9063-.0009 1.2388l2.97772 2.7307-2.97772 2.7307c-.36262.3326-.36221.9068.0009 1.2388l1.10122 1.007c.2969.2714.744.2913 1.0636.0475l3.4336-2.6198 7.8828 7.2288c.1247.1255.2711.2199.4285.2815zm.8207-14.4782-5.9812 4.5637 5.9812 4.5638z" fill="url(#d)" fill-rule="evenodd" opacity=".0625"/></g></g></g></g></svg>

<svg width="41" height="41" viewBox="0 0 41 41" fill="none" xmlns="http://www.w3.org/2000/svg">
<rect x="0.5" y="0.5" width="40" height="40" rx="20" fill="#131117"/>
<g clip-path="url(#clip0_1993_71)">
<mask id="mask0_1993_71" style="mask-type:luminance" maskUnits="userSpaceOnUse" x="9" y="10" width="21" height="21">
<path d="M29.5 10.5H9.5V30.5H29.5V10.5Z" fill="white"/>
</mask>
<g mask="url(#mask0_1993_71)">
<g filter="url(#filter0_d_1993_71)">
<mask id="mask1_1993_71" style="mask-type:alpha" maskUnits="userSpaceOnUse" x="9" y="10" width="21" height="21">
<path fill-rule="evenodd" clip-rule="evenodd" d="M23.6824 30.4145C23.9974 30.5378 24.3566 30.53 24.6745 30.3762L28.7921 28.3846C29.2248 28.1754 29.5 27.7353 29.5 27.2523V13.7478C29.5 13.2649 29.2248 12.8248 28.7921 12.6155L24.6745 10.6238C24.2572 10.422 23.7689 10.4714 23.4027 10.7391C23.3504 10.7773 23.3006 10.82 23.2538 10.867L15.371 18.0959L11.9374 15.476C11.6178 15.2321 11.1707 15.2521 10.8739 15.5236L9.7726 16.5305C9.40948 16.8625 9.40908 17.4367 9.77171 17.7693L12.7494 20.5L9.77171 23.2307C9.40908 23.5633 9.40948 24.1375 9.7726 24.4696L10.8739 25.4765C11.1707 25.7479 11.6178 25.768 11.9374 25.524L15.371 22.9042L23.2538 30.133C23.3785 30.2585 23.5249 30.3529 23.6824 30.4145ZM24.503 15.9363L18.5218 20.5L24.503 25.0638V15.9363Z" fill="white"/>
</mask>
<g mask="url(#mask1_1993_71)">
<path d="M28.7928 12.6187L24.6718 10.6243C24.1948 10.3934 23.6248 10.4908 23.2504 10.8671L9.76015 23.2308C9.3973 23.5634 9.39772 24.1376 9.76105 24.4696L10.863 25.4765C11.16 25.748 11.6074 25.7679 11.9272 25.5241L28.1726 13.1361C28.7176 12.7205 29.5005 13.1112 29.5005 13.7989V13.7508C29.5005 13.2681 29.2253 12.8281 28.7928 12.6187Z" fill="#D9D9D9"/>
<g filter="url(#filter1_d_1993_71)">
<path d="M28.7928 28.3814L24.6718 30.3759C24.1948 30.6068 23.6248 30.5094 23.2504 30.133L9.76015 17.7692C9.3973 17.4367 9.39772 16.8625 9.76105 16.5304L10.863 15.5235C11.16 15.2521 11.6074 15.2321 11.9272 15.476L28.1726 27.864C28.7176 28.2797 29.5005 27.8889 29.5005 27.2012V27.2494C29.5005 27.732 29.2253 28.172 28.7928 28.3814Z" fill="#E6E6E6"/>
</g>
<g filter="url(#filter2_d_1993_71)">
<path d="M24.6716 30.3762C24.1944 30.607 23.6244 30.5094 23.25 30.133C23.7113 30.5966 24.5 30.2683 24.5 29.6126V11.3874C24.5 10.7317 23.7113 10.4033 23.25 10.867C23.6244 10.4907 24.1944 10.3932 24.6716 10.6238L28.7917 12.6155C29.2246 12.8248 29.5 13.2649 29.5 13.7478V27.2523C29.5 27.7353 29.2246 28.1752 28.7917 28.3846L24.6716 30.3762Z" fill="white"/>
</g>
<g style="mix-blend-mode:overlay" opacity="0.25">
<path style="mix-blend-mode:overlay" opacity="0.25" fill-rule="evenodd" clip-rule="evenodd" d="M23.6706 30.4145C23.9856 30.5378 24.3448 30.53 24.6628 30.3762L28.7805 28.3846C29.2132 28.1754 29.4882 27.7353 29.4882 27.2523V13.7478C29.4882 13.265 29.2132 12.8248 28.7805 12.6155L24.6628 10.6238C24.2455 10.422 23.7572 10.4714 23.391 10.739C23.3387 10.7773 23.2888 10.82 23.2421 10.867L15.3593 18.0959L11.9257 15.476C11.6061 15.2321 11.159 15.2521 10.8621 15.5236L9.76088 16.5305C9.39777 16.8625 9.39736 17.4368 9.75998 17.7693L12.7377 20.5L9.75998 23.2307C9.39736 23.5633 9.39777 24.1375 9.76088 24.4695L10.8621 25.4765C11.159 25.7479 11.6061 25.7678 11.9257 25.524L15.3593 22.9042L23.2421 30.133C23.3668 30.2585 23.5132 30.3529 23.6706 30.4145ZM24.4913 15.9363L18.5101 20.5L24.4913 25.0638V15.9363Z" fill="url(#paint0_linear_1993_71)"/>
</g>
</g>
</g>
</g>
</g>
<defs>
<filter id="filter0_d_1993_71" x="3.25" y="6.33333" width="32.5" height="32.5" filterUnits="userSpaceOnUse" color-interpolation-filters="sRGB">
<feFlood flood-opacity="0" result="BackgroundImageFix"/>
<feColorMatrix in="SourceAlpha" type="matrix" values="0 0 0 0 0 0 0 0 0 0 0 0 0 0 0 0 0 0 127 0" result="hardAlpha"/>
<feOffset dy="2.08333"/>
<feGaussianBlur stdDeviation="3.125"/>
<feColorMatrix type="matrix" values="0 0 0 0 0 0 0 0 0 0 0 0 0 0 0 0 0 0 0.15 0"/>
<feBlend mode="normal" in2="BackgroundImageFix" result="effect1_dropShadow_1993_71"/>
<feBlend mode="normal" in="SourceGraphic" in2="effect1_dropShadow_1993_71" result="shape"/>
</filter>
<filter id="filter1_d_1993_71" x="1.15494" y="6.97232" width="36.6784" height="31.861" filterUnits="userSpaceOnUse" color-interpolation-filters="sRGB">
<feFlood flood-opacity="0" result="BackgroundImageFix"/>
<feColorMatrix in="SourceAlpha" type="matrix" values="0 0 0 0 0 0 0 0 0 0 0 0 0 0 0 0 0 0 127 0" result="hardAlpha"/>
<feOffset/>
<feGaussianBlur stdDeviation="4.16667"/>
<feColorMatrix type="matrix" values="0 0 0 0 0 0 0 0 0 0 0 0 0 0 0 0 0 0 0.25 0"/>
<feBlend mode="overlay" in2="BackgroundImageFix" result="effect1_dropShadow_1993_71"/>
<feBlend mode="normal" in="SourceGraphic" in2="effect1_dropShadow_1993_71" result="shape"/>
</filter>
<filter id="filter2_d_1993_71" x="14.9167" y="2.16666" width="22.9167" height="36.6667" filterUnits="userSpaceOnUse" color-interpolation-filters="sRGB">
<feFlood flood-opacity="0" result="BackgroundImageFix"/>
<feColorMatrix in="SourceAlpha" type="matrix" values="0 0 0 0 0 0 0 0 0 0 0 0 0 0 0 0 0 0 127 0" result="hardAlpha"/>
<feOffset/>
<feGaussianBlur stdDeviation="4.16667"/>
<feColorMatrix type="matrix" values="0 0 0 0 0 0 0 0 0 0 0 0 0 0 0 0 0 0 0.25 0"/>
<feBlend mode="overlay" in2="BackgroundImageFix" result="effect1_dropShadow_1993_71"/>
<feBlend mode="normal" in="SourceGraphic" in2="effect1_dropShadow_1993_71" result="shape"/>
</filter>
<linearGradient id="paint0_linear_1993_71" x1="19.4883" y1="10.5" x2="19.4883" y2="30.5002" gradientUnits="userSpaceOnUse">
<stop stop-color="white"/>
<stop offset="1" stop-color="white" stop-opacity="0"/>
</linearGradient>
<clipPath id="clip0_1993_71">
<rect width="20" height="20" fill="white" transform="translate(9.5 10.5)"/>
</clipPath>
</defs>
</svg>
